X:4947
L:1/8
M:6/8
K:Amin
 ABA AGE | G2 A c2 d | ege dBG | G2 A GEG | ABA AGE | G2 A c2 d | ege dBG | A3 A3 :: g2 g ged | 
 c2 c cAG | AcA GEG | c2 A GEG | ABA AGE | G2 A c2 d | ege dBG | A3 A3 :|

